packages/icons/src/space-evenly-vertically.svg

<svg width="15" height="15" viewBox="0 0 15 15" fill="none" xmlns="http://www.w3.org/2000/svg">
  <path
    fill-rule="evenodd"
    clip-rule="evenodd"
    d="M0.999878 0.5C0.999878 0.223858 1.22374 0 1.49988 0H13.4999C13.776 0 13.9999 0.223858 13.9999 0.5C13.9999 0.776142 13.776 1 13.4999 1H1.49988C1.22374 1 0.999878 0.776142 0.999878 0.5ZM7 2C6.44772 2 6 2.44772 6 3V6C6 6.55228 6.44772 7 7 7H8C8.55228 7 9 6.55228 9 6V3C9 2.44772 8.55228 2 8 2H7ZM7 8C6.44772 8 6 8.44771 6 9V12C6 12.5523 6.44772 13 7 13H8C8.55228 13 9 12.5523 9 12V9C9 8.44772 8.55228 8 8 8H7ZM1.49988 14C1.22374 14 0.999878 14.2239 0.999878 14.5C0.999878 14.7761 1.22374 15 1.49988 15H13.4999C13.776 15 13.9999 14.7761 13.9999 14.5C13.9999 14.2239 13.776 14 13.4999 14H1.49988Z"
    fill="currentColor"
  />
</svg>

<svg xmlns="http://www.w3.org/2000/svg" width="15" height="15" fill="none"><path fill="currentColor" fill-rule="evenodd" d="M1 .5a.5.5 0 0 1 .5-.5h12a.5.5 0 0 1 0 1h-12A.5.5 0 0 1 1 .5M7 2a1 1 0 0 0-1 1v3a1 1 0 0 0 1 1h1a1 1 0 0 0 1-1V3a1 1 0 0 0-1-1zm0 6a1 1 0 0 0-1 1v3a1 1 0 0 0 1 1h1a1 1 0 0 0 1-1V9a1 1 0 0 0-1-1zm-5.5 6a.5.5 0 0 0 0 1h12a.5.5 0 0 0 0-1z" clip-rule="evenodd"/></svg>
